X: 41346
T: Turnpike Gate, The
R: reel
M: 4/4
K: Gmajor
BA|GEDE G3B|ADED ADED|GEDE G2Bd|1 eBdB A2:|2 eBdB G2||
Bd|gfgb agab|gabg agef|gfgb agab|gedB A2Bd|
gfgb agab|gabg agfg|e3d edBd|gedB A2||

